X:2477
T:Cancioneiro de Casto Sampedro: N\'umero 316
T:Muiñeira de Cesures
O:Galicia (Spain)
B:Cancioneiro de Casto Sampedro
Z:Transcrito por Jos\'e J. Presedo
Z:Covertido de Midi a abc por Antonio-Nil
N:http://www.arrakis.es/~jpresedo/
M: 4/4
L: 1/8
Q:1/4=190
K:C % 0 sharps
z4 zG A/2G3/2-|[G/2E/2-]E/2C2D F/2E/2-[E/2D/2-]D/2 EC-|CG A/2G/2-[G/2F/2-]F/2 GA2G|EC4G A/2G3/2-|
[G/2E/2-]E/2C2D F/2E/2-[E/2D/2-]D/2 EC-|CG A/2G/2-[G/2F/2-]F/2 GA2G|c2->c/2c2-c/2G A/2G3/2-|[G/2E/2-]E/2C2D F/2E/2-[E/2D/2-]D/2 EC-|
CG A/2G/2-[G/2F/2-]F/2 GA2G|EC4G A/2G3/2-|[G/2E/2-]E/2C2D F/2E/2-[E/2D/2-]D/2 EC-|CG A/2G/2-[G/2F/2-]F/2 GA2G|
c2->c/2c2-c/2D D2|B,C2D E2 DF-|FE D2 DE2D|CB, D2<C2 D2|
B,C2D E2 EF-|FE DE FG AB|c2->c/2c2-c/2D D2|B,C2D E2 DF-|
FE D2 DE2D|CB, D2<C2 D2|B,C2D E2 EF-|FE DE FG AB|
c2->c/2c2-c/2G A/2G3/2-|[G/2E/2-]E/2C2D F/2E/2-[E/2D/2-]D/2 EC-|CG A/2G/2-[G/2F/2-]F/2 GA2G|EC4G A/2G3/2-|
[G/2E/2-]E/2C2D F/2E/2-[E/2D/2-]D/2 EC-|CG A/2G/2-[G/2F/2-]F/2 GA2G|c2->c/2c2-c/2G A/2G3/2-|[G/2E/2-]E/2C2D F/2E/2-[E/2D/2-]D/2 EC-|
CG A/2G/2-[G/2F/2-]F/2 GA2G|EC4G A/2G3/2-|[G/2E/2-]E/2C2D F/2E/2-[E/2D/2-]D/2 EC-|CG A/2G/2-[G/2F/2-]F/2 GA2G|
c2->c/2c2-c/2D D2|B,C2D E2 DF-|FE D2 DE2D|CB, D2<C2 D2|
B,C2D E2 EF-|FE DE FG AB|c2->c/2c2-c/2D D2|B,C2D E2 DF-|
FE D2 DE2D|CB, D2<C2 D2|B,C2D E2 EF-|FE DE FG AB|
c3


